X: 21081
T: CONFUSION HORNPIPE
R: hornpipe, reel
B: K\"ohler's Violin Repository, v.2, 1885 p.108 #1
F: http://www.archive.org/details/klersviolinrepos02rugg
Z: 2012 John Chambers <jc:trillian.mit.edu>
M: C|
L: 1/8
K: G
(uDC) |\
B,DG,G FADc | BdGg fecA |\
BFGD EecA | FdE^c (3dAG (3FED |
(3B,DG, (3B,DG (3FAc (3GBd | efga be'd'd |\
(3Dd^c (3dAF (3D=cB (3cAF | (3DBB, (3CED G,2 :|
|: (uAG) |\
(3FDF (3cAF (3GDG (3BGD | (e>c)A>e (d>B)G>d |\
(c>B)A>^G (A>E)A>=G | Fd E^c d(def) |
(3gdc (3BAG (3ecA (3dBG | (3cAF (3DFA (3BGg (3dBG |\
(e>d) (3cBA (3GFE (3DFA |1 (3GBd (3gdB G2 :|2 ((3GBd (3gbd' "_D.C."g'2) |]

%%sep 2 1 500

